src/assets/svgs/s4.svg

<svg width="48" height="48" viewBox="0 0 48 48" fill="none" xmlns="http://www.w3.org/2000/svg">
<g id="family">
<g id="Group">
<path id="Vector" d="M24 18.415C21.8668 14.5402 18.5154 12.0001 14.1923 12.0001C7.69678 12.0001 3 17.4207 3 24.0724C3 32.096 10.9599 38.1246 17.9921 44.047C19.0952 44.976 20.236 45.9367 21.42 46.9474C23.0727 48.358 25.5525 48.3499 27.1884 46.9287C39.4141 36.3082 45 31.5215 45 24.0723C45 17.4244 40.3065 12 33.8078 12C29.4834 12.0002 26.1325 14.5417 24 18.415ZM24 22.9086C25.5268 22.9086 26.7689 24.155 26.7689 25.687C26.7689 27.219 25.5268 28.4653 24 28.4653C22.4733 28.4653 21.2312 27.219 21.2312 25.687C21.2312 24.155 22.4733 22.9086 24 22.9086ZM25.3761 44.8282C24.7643 45.3597 23.8348 45.3611 23.2141 44.8313C22.0231 43.8146 18.562 40.8997 17.9802 40.4075C18.3114 40.2242 18.6223 39.9936 18.9011 39.7139C19.708 38.9041 20.1481 37.7803 20.1086 36.6303C20.0893 36.068 19.9556 35.5198 19.7245 35.0171C21.0465 34.3634 22.5013 34.022 24 34.022C25.562 34.022 27.0712 34.3916 28.4342 35.0978C27.6939 36.6543 27.9467 38.5577 29.2318 39.8472C29.5348 40.1513 29.8739 40.3966 30.2348 40.5872C28.7648 41.8843 27.1483 43.2888 25.3761 44.8282ZM33.8079 14.7785C38.61 14.7785 42.2313 18.7741 42.2313 24.0725C42.2313 28.6268 39.4921 32.1678 33.1675 37.9583C32.9828 38.0157 32.0282 38.7239 31.1898 37.8826C30.6296 37.3205 30.6678 36.3911 31.2548 35.8557C36.8159 30.7846 39.4625 27.7201 39.4625 24.02H36.6937C36.6937 26.2481 35.116 28.4884 30.3033 32.9613C28.3975 31.8357 26.2407 31.2437 24 31.2437C21.821 31.2437 19.7142 31.8063 17.8436 32.8761C13.7848 29.2622 11.3063 26.4796 11.3063 24.02H8.53749C8.53749 27.713 11.5885 31.1012 16.8584 35.706C17.468 36.2386 17.5091 37.1814 16.9432 37.7493C16.0781 38.6171 14.9389 37.8036 14.9482 37.8033C9.28083 32.8263 5.76884 28.8785 5.76884 24.0725C5.76884 18.7741 9.3901 14.7785 14.1923 14.7785C18.5494 14.7785 20.8973 18.2321 21.9733 20.5175C19.9197 21.331 18.4624 23.3409 18.4624 25.6871C18.4624 28.751 20.9466 31.2438 24 31.2438C27.0535 31.2438 29.5377 28.751 29.5377 25.6871C29.5377 23.3409 28.0803 21.3311 26.0268 20.5175C27.1028 18.232 29.4507 14.7785 33.8079 14.7785Z" fill="#042925"/>
<path id="Vector_2" d="M11.5 0C10.0285 0 8.64211 0.642248 7.59637 1.80843C6.56696 2.95636 6 4.46251 6 6.04959C6 9.33064 8.4673 12 11.5 12C14.5327 12 17 9.33064 17 6.04959C17 4.46251 16.433 2.95636 15.4036 1.80843C14.3579 0.642248 12.9715 0 11.5 0ZM11.5 9.02479C9.98365 9.02479 8.75 7.69012 8.75 6.04959C8.75 4.38307 10.0093 2.97521 11.5 2.97521C12.9907 2.97521 14.25 4.38307 14.25 6.04959C14.25 7.69012 13.0164 9.02479 11.5 9.02479Z" fill="#042925"/>
<path id="Vector_3" d="M42 6.04959C42 4.46251 41.433 2.95636 40.4036 1.80843C39.3579 0.642248 37.9715 0 36.5 0C35.0285 0 33.6421 0.642248 32.5964 1.80843C31.567 2.95636 31 4.46251 31 6.04959C31 9.33064 33.4673 12 36.5 12C39.5327 12 42 9.33064 42 6.04959ZM33.75 6.04959C33.75 4.38307 35.0093 2.97521 36.5 2.97521C37.9907 2.97521 39.25 4.38307 39.25 6.04959C39.25 7.69012 38.0164 9.02479 36.5 9.02479C34.9837 9.02479 33.75 7.69012 33.75 6.04959Z" fill="#042925"/>
</g>
</g>
</svg>

<svg width="48" height="48" fill="none" xmlns="http://www.w3.org/2000/svg"><g fill="#042925"><path d="M24 18.415C21.867 14.54 18.515 12 14.192 12 7.697 12 3 17.42 3 24.072c0 8.024 7.96 14.053 14.992 19.975 1.103.929 2.244 1.89 3.428 2.9 1.653 1.411 4.132 1.403 5.768-.018C39.414 36.309 45 31.52 45 24.072 45 17.424 40.306 12 33.808 12c-4.325 0-7.675 2.542-9.808 6.415Zm0 4.494a2.777 2.777 0 0 1 2.769 2.778A2.777 2.777 0 0 1 24 28.465a2.777 2.777 0 0 1-2.769-2.778A2.777 2.777 0 0 1 24 22.909Zm1.376 21.92a1.667 1.667 0 0 1-2.162.002c-1.19-1.016-4.652-3.931-5.234-4.424.331-.183.642-.413.921-.693a4.179 4.179 0 0 0 .823-4.697A9.618 9.618 0 0 1 24 34.022c1.562 0 3.071.37 4.434 1.076-.74 1.556-.487 3.46.798 4.75.303.303.642.549 1.003.74a855.001 855.001 0 0 1-4.859 4.24Zm8.432-30.05c4.802 0 8.423 3.995 8.423 9.294 0 4.554-2.739 8.095-9.064 13.885-.184.058-1.139.766-1.977-.075-.56-.563-.522-1.492.065-2.027 5.56-5.071 8.207-8.136 8.207-11.836h-2.768c0 2.228-1.578 4.468-6.39 8.941A12.338 12.338 0 0 0 24 31.244c-2.179 0-4.286.562-6.156 1.632-4.06-3.614-6.538-6.396-6.538-8.856H8.537c0 3.693 3.051 7.081 8.321 11.686.61.533.651 1.475.085 2.043-.865.868-2.004.055-1.995.054-5.667-4.977-9.18-8.924-9.18-13.73 0-5.299 3.622-9.295 8.424-9.295 4.357 0 6.705 3.454 7.781 5.74a5.564 5.564 0 0 0-3.51 5.17c0 3.063 2.484 5.556 5.537 5.556s5.538-2.493 5.538-5.557a5.564 5.564 0 0 0-3.511-5.17c1.076-2.285 3.424-5.739 7.78-5.739ZM11.5 0c-1.472 0-2.858.642-3.904 1.808C6.567 2.956 6 4.463 6 6.05 6 9.33 8.467 12 11.5 12S17 9.33 17 6.05c0-1.587-.567-3.094-1.596-4.242C14.358.642 12.972 0 11.5 0Zm0 9.025c-1.516 0-2.75-1.335-2.75-2.975 0-1.667 1.26-3.075 2.75-3.075s2.75 1.408 2.75 3.075c0 1.64-1.234 2.975-2.75 2.975ZM42 6.05c0-1.587-.567-3.094-1.596-4.242C39.358.642 37.97 0 36.5 0s-2.858.642-3.904 1.808C31.567 2.956 31 4.463 31 6.05 31 9.33 33.467 12 36.5 12S42 9.33 42 6.05Zm-8.25 0c0-1.667 1.26-3.075 2.75-3.075s2.75 1.408 2.75 3.075c0 1.64-1.234 2.975-2.75 2.975S33.75 7.69 33.75 6.05Z"/></g></svg>
